collections/old_signs/svg/316.svg

<?xml version="1.0" encoding="UTF-8" standalone="no"?>
<!-- Generator: Adobe Illustrator 15.1.0, SVG Export Plug-In . SVG Version: 6.00 Build 0)  -->

<svg
   xmlns:dc="http://purl.org/dc/elements/1.1/"
   xmlns:cc="http://creativecommons.org/ns#"
   xmlns:rdf="http://www.w3.org/1999/02/22-rdf-syntax-ns#"
   xmlns:svg="http://www.w3.org/2000/svg"
   xmlns="http://www.w3.org/2000/svg"
   xmlns:sodipodi="http://sodipodi.sourceforge.net/DTD/sodipodi-0.dtd"
   xmlns:inkscape="http://www.inkscape.org/namespaces/inkscape"
   version="1.0"
   id="Kuvataso_1"
   x="0px"
   y="0px"
   width="494.13599"
   height="494.064"
   viewBox="0 0 494.13599 494.064"
   enable-background="new 0 0 595 842"
   xml:space="preserve"
   sodipodi:docname="316.svg"
   inkscape:version="0.92.5 (2060ec1f9f, 2020-04-08)"><metadata
   id="metadata1088"><rdf:RDF><cc:Work
       rdf:about=""><dc:format>image/svg+xml</dc:format><dc:type
         rdf:resource="http://purl.org/dc/dcmitype/StillImage" /></cc:Work></rdf:RDF></metadata><defs
   id="defs1086" /><sodipodi:namedview
   pagecolor="#ffffff"
   bordercolor="#666666"
   borderopacity="1"
   objecttolerance="10"
   gridtolerance="10"
   guidetolerance="10"
   inkscape:pageopacity="0"
   inkscape:pageshadow="2"
   inkscape:window-width="640"
   inkscape:window-height="480"
   id="namedview1084"
   showgrid="false"
   inkscape:zoom="0.28028504"
   inkscape:cx="268.6"
   inkscape:cy="198.412"
   inkscape:window-x="0"
   inkscape:window-y="0"
   inkscape:window-maximized="0"
   inkscape:current-layer="Kuvataso_1" />
<g
   id="g1081"
   transform="translate(-28.9,-125.348)">
	<path
   stroke-miterlimit="10"
   d="m 275.968,619.304 c 136.008,0 246.96,-110.952 246.96,-246.888 0,-136.008 -110.952,-246.96 -246.96,-246.96 -136.008,0 -246.96,110.952 -246.96,246.96 0,135.936 110.952,246.888 246.96,246.888 z"
   id="path1065"
   inkscape:connector-curvature="0"
   style="clip-rule:evenodd;fill:#ffd520;fill-rule:evenodd;stroke:#ffd520;stroke-width:0.21600001;stroke-miterlimit:10" />
	<g
   id="g1071">
		<path
   d="m 275.968,135.896 c 130.248,0 236.52,106.272 236.52,236.52 0,130.248 -106.272,236.52 -236.52,236.52 v -47.88 c 103.896,0 188.712,-84.744 188.712,-188.64 0,-103.968 -84.816,-188.712 -188.712,-188.712 z m 0,265.896 117.792,117.936 13.032,-10.872 5.688,-6.048 7.848,-8.28 -144.36,-144.504 z m 0,207.144 c -130.248,0 -236.52,-106.272 -236.52,-236.52 0,-130.248 106.272,-236.52 236.52,-236.52 v 47.808 c -103.896,0 -188.712,84.744 -188.712,188.712 0,103.896 84.816,188.64 188.712,188.64 z m 0,-258.912 -121.752,-121.968 -10.872,10.008 -7.416,8.352 -6.912,8.136 146.952,147.24 z"
   id="path1067"
   inkscape:connector-curvature="0"
   style="clip-rule:evenodd;fill:#ef3e42;fill-rule:evenodd" />
		<path
   stroke-miterlimit="10"
   d="m 275.968,135.896 c 130.248,0 236.52,106.272 236.52,236.52 0,130.248 -106.272,236.52 -236.52,236.52 -130.248,0 -236.52,-106.272 -236.52,-236.52 0,-130.248 106.272,-236.52 236.52,-236.52 z m 0,47.808 c 103.896,0 188.712,84.744 188.712,188.712 0,103.896 -84.816,188.64 -188.712,188.64 -103.896,0 -188.712,-84.744 -188.712,-188.64 0,-103.968 84.816,-188.712 188.712,-188.712 z m -146.952,70.848 264.744,265.176 13.032,-10.872 5.688,-6.048 7.848,-8.28 -266.112,-266.472 -10.872,10.008 -7.416,8.352 z"
   id="path1069"
   inkscape:connector-curvature="0"
   style="clip-rule:evenodd;fill:none;fill-rule:evenodd;stroke:#ef3e42;stroke-width:0.21600001;stroke-miterlimit:10" />
	</g>
	<g
   id="g1079">
		<polygon
   points="212.176,393.872 214.192,397.976 215.776,402.08 217,406.184 218.224,410.72 218.656,414.824 218.656,419.288 218.656,423.752 217.864,428.288 217,432.392 215.416,436.856 211.312,436.496 209.296,440.6 207.28,444.272 204.4,447.944 201.592,451.256 198.352,454.136 194.68,456.584 191.008,459.032 187.336,460.688 182.872,462.344 178.768,463.568 174.304,463.928 170.272,464.36 165.808,464.36 161.344,463.568 157.24,462.704 153.208,461.048 149.104,459.464 145.432,457.016 141.832,454.496 138.52,451.616 135.28,448.376 132.832,445.064 130.384,440.96 128.368,436.496 126.784,432.392 125.92,428.648 125.128,424.544 124.696,420.152 124.696,415.616 125.56,411.512 126.352,406.976 127.576,402.944 129.592,398.84 131.608,395.096 134.056,391.424 136.936,388.112 140.176,384.872 143.416,382.424 147.52,379.976 151.12,377.888 155.224,376.232 159.688,375.008 158.464,370.904 162.928,370.112 167.824,369.68 172.288,369.68 176.752,370.112 181.216,370.904 185.68,372.128 190.216,374.216 194.248,376.232 201.592,366.008 188.992,360.68 183.664,333.608 190.216,331.52 196.696,330.296 203.608,329.072 310.456,436.856 258.472,436.856 256.456,436.496 254.44,435.632 252.424,434.84 249.544,433.184 247.096,431.168 245.08,428.648 243.064,426.2 241.408,423.32 240.184,420.512 239.392,415.616 238.6,410.72 238.6,400.424 215.416,378.32 206.848,386.888 209.728,390.2 "
   id="polygon1073"
   style="clip-rule:evenodd;fill-rule:evenodd" />
		<polygon
   points="184.888,412.376 185.68,414.824 186.544,417.272 186.544,419.72 186.112,422.528 185.32,424.976 184.528,427.424 182.872,429.512 181.216,431.528 179.2,433.184 174.304,435.272 171.856,435.632 169.048,436.064 166.6,435.632 164.152,434.84 161.704,433.976 159.688,432.392 157.672,430.736 156.016,428.648 154.792,426.2 153.568,423.752 153.208,421.304 152.776,418.928 153.208,416.048 154,413.6 154.792,411.08 156.448,409.064 158.032,406.976 160.12,405.392 162.568,404.168 164.944,402.944 167.392,402.512 169.84,402.08 172.288,402.512 175.168,403.304 180.424,395.096 177.616,393.872 173.944,393.08 170.704,392.648 167.032,392.648 163.792,393.512 160.48,394.304 157.24,395.96 154.432,397.544 151.552,399.632 149.536,402.512 147.52,405.392 145.864,408.272 144.64,411.512 143.848,414.824 143.416,418.496 143.848,421.736 144.208,424.976 145.432,428.288 146.656,431.528 148.744,434.408 150.76,437.288 153.568,439.736 156.448,441.392 159.256,443.048 162.568,444.272 165.808,445.064 169.48,445.496 172.72,445.064 176.392,444.704 179.632,443.48 185.32,440.168 188.128,437.72 190.216,435.272 192.232,432.392 193.816,429.08 195.04,425.84 195.904,422.528 195.904,419.288 195.904,415.616 195.04,412.376 193.816,409.064 190.576,402.944 183.664,409.856 "
   id="polygon1075"
   style="clip-rule:evenodd;fill:#ffd200;fill-rule:evenodd" />
		<polygon
   points="260.92,305.672 266.608,300.776 266.608,293 259.696,293 258.112,292.568 256.456,291.776 255.232,290.552 254.44,288.896 253.648,284.36 252.784,273.272 249.976,273.272 250.768,270.032 251.56,266.288 253.216,263.048 254.872,260.6 256.888,257.72 258.472,256.496 260.56,255.272 262.576,254.408 266.248,253.616 269.848,253.616 273.952,254.048 275.968,254.84 278.416,255.632 280.432,256.496 282.52,258.512 284.536,260.6 285.76,263.048 286.984,265.496 287.776,268.376 288.208,271.256 288.568,274.136 288.568,277.016 288.568,282.704 288.208,288.464 291.016,290.552 296.344,295.016 301.096,299.552 305.992,304.448 310.456,309.416 314.56,315.104 318.16,320.864 321.472,326.624 324.712,332.744 327.16,338.504 329.176,344.696 330.832,349.592 331.624,354.92 331.984,360.248 331.192,363.92 341.344,359.456 344.224,360.68 349.12,361.904 353.944,362.696 358.84,363.128 366.184,363.128 373.888,362.336 381.592,361.472 388.936,359.816 396.28,358.232 399.088,362.696 400.312,365.576 401.176,368.888 401.176,371.768 401.176,375.008 400.744,378.32 403.552,380.768 407.224,384.008 410.464,387.32 413.344,391.424 415.792,395.528 417.808,400.064 419.464,404.528 420.688,409.064 421.48,413.96 421.48,418.928 421.48,423.752 421.048,428.288 419.824,433.184 415,433.184 414.136,436.064 412.12,440.168 409.672,444.272 406.864,447.944 403.552,451.256 399.952,454.496 396.28,457.376 392.176,459.824 387.712,461.48 371.872,445.496 374.32,445.496 377.992,445.064 381.232,443.84 384.472,442.616 387.352,440.6 389.728,438.512 392.176,436.064 394.264,433.184 395.848,430.304 397.072,427.064 397.864,423.752 398.296,420.152 398.296,416.84 397.864,413.6 396.64,409.856 395.416,406.976 393.832,403.736 385.696,408.632 387.352,411.512 388.936,414.824 389.368,418.928 388.936,421.736 387.352,426.632 386.128,429.08 382.024,432.752 377.56,434.84 374.68,435.632 372.304,435.632 369.424,435.632 366.976,434.84 364.528,433.616 362.512,432.392 360.496,430.736 358.84,428.648 357.256,426.2 354.376,427.856 277.984,351.248 283.312,347.504 269.056,328.64 260.92,333.968 247.528,320.432 255.664,311.432 "
   id="polygon1077"
   style="clip-rule:evenodd;fill-rule:evenodd" />
	</g>
</g>
</svg>

<?xml version="1.0" encoding="utf-8"?>
<!-- Generator: Adobe Illustrator 15.1.0, SVG Export Plug-In . SVG Version: 6.00 Build 0)  -->
<!DOCTYPE svg PUBLIC "-//W3C//DTD SVG 1.0//EN" "http://www.w3.org/TR/2001/REC-SVG-20010904/DTD/svg10.dtd">
<svg version="1.0" id="Kuvataso_1" xmlns="http://www.w3.org/2000/svg" xmlns:xlink="http://www.w3.org/1999/xlink" x="0px" y="0px"
	 width="595px" height="842px" viewBox="0 0 595 842" enable-background="new 0 0 595 842" xml:space="preserve">
<g>
	<path fill-rule="evenodd" clip-rule="evenodd" fill="#FFD520" stroke="#FFD520" stroke-width="0.216" stroke-miterlimit="10" d="
		M275.968,619.304c136.008,0,246.96-110.952,246.96-246.888c0-136.008-110.952-246.96-246.96-246.96
		c-136.008,0-246.96,110.952-246.96,246.96C29.008,508.352,139.96,619.304,275.968,619.304z"/>
	<g>
		<path fill-rule="evenodd" clip-rule="evenodd" fill="#EF3E42" d="M275.968,135.896c130.248,0,236.52,106.272,236.52,236.52
			s-106.272,236.52-236.52,236.52v-47.88c103.896,0,188.712-84.744,188.712-188.64c0-103.968-84.816-188.712-188.712-188.712
			V135.896L275.968,135.896z M275.968,401.792L393.76,519.728l13.032-10.872l5.688-6.048l7.848-8.28l-144.36-144.504V401.792z
			 M275.968,608.936c-130.248,0-236.52-106.272-236.52-236.52s106.272-236.52,236.52-236.52v47.808
			c-103.896,0-188.712,84.744-188.712,188.712c0,103.896,84.816,188.64,188.712,188.64V608.936L275.968,608.936z M275.968,350.024
			L154.216,228.056l-10.872,10.008l-7.416,8.352l-6.912,8.136l146.952,147.24V350.024z"/>
		<path fill-rule="evenodd" clip-rule="evenodd" fill="none" stroke="#EF3E42" stroke-width="0.216" stroke-miterlimit="10" d="
			M275.968,135.896c130.248,0,236.52,106.272,236.52,236.52s-106.272,236.52-236.52,236.52c-130.248,0-236.52-106.272-236.52-236.52
			S145.72,135.896,275.968,135.896L275.968,135.896z M275.968,183.704c103.896,0,188.712,84.744,188.712,188.712
			c0,103.896-84.816,188.64-188.712,188.64S87.256,476.312,87.256,372.416C87.256,268.448,172.072,183.704,275.968,183.704
			L275.968,183.704z M129.016,254.552L393.76,519.728l13.032-10.872l5.688-6.048l7.848-8.28L154.216,228.056l-10.872,10.008
			l-7.416,8.352L129.016,254.552z"/>
	</g>
	<g>
		<polygon fill-rule="evenodd" clip-rule="evenodd" points="206.848,386.888 209.728,390.2 212.176,393.872 214.192,397.976 
			215.776,402.08 217,406.184 218.224,410.72 218.656,414.824 218.656,419.288 218.656,423.752 217.864,428.288 217,432.392 
			215.416,436.856 211.312,436.496 209.296,440.6 207.28,444.272 204.4,447.944 201.592,451.256 198.352,454.136 194.68,456.584 
			191.008,459.032 187.336,460.688 182.872,462.344 178.768,463.568 174.304,463.928 170.272,464.36 165.808,464.36 
			161.344,463.568 157.24,462.704 153.208,461.048 149.104,459.464 145.432,457.016 141.832,454.496 138.52,451.616 135.28,448.376 
			132.832,445.064 130.384,440.96 128.368,436.496 126.784,432.392 125.92,428.648 125.128,424.544 124.696,420.152 
			124.696,415.616 125.56,411.512 126.352,406.976 127.576,402.944 129.592,398.84 131.608,395.096 134.056,391.424 
			136.936,388.112 140.176,384.872 143.416,382.424 147.52,379.976 151.12,377.888 155.224,376.232 159.688,375.008 
			158.464,370.904 162.928,370.112 167.824,369.68 172.288,369.68 176.752,370.112 181.216,370.904 185.68,372.128 190.216,374.216 
			194.248,376.232 201.592,366.008 188.992,360.68 183.664,333.608 190.216,331.52 196.696,330.296 203.608,329.072 
			310.456,436.856 258.472,436.856 256.456,436.496 254.44,435.632 252.424,434.84 249.544,433.184 247.096,431.168 245.08,428.648 
			243.064,426.2 241.408,423.32 240.184,420.512 239.392,415.616 238.6,410.72 238.6,400.424 215.416,378.32 		"/>
		<polygon fill-rule="evenodd" clip-rule="evenodd" fill="#FFD200" points="190.576,402.944 183.664,409.856 184.888,412.376 
			185.68,414.824 186.544,417.272 186.544,419.72 186.112,422.528 185.32,424.976 184.528,427.424 182.872,429.512 181.216,431.528 
			179.2,433.184 174.304,435.272 171.856,435.632 169.048,436.064 166.6,435.632 164.152,434.84 161.704,433.976 159.688,432.392 
			157.672,430.736 156.016,428.648 154.792,426.2 153.568,423.752 153.208,421.304 152.776,418.928 153.208,416.048 154,413.6 
			154.792,411.08 156.448,409.064 158.032,406.976 160.12,405.392 162.568,404.168 164.944,402.944 167.392,402.512 169.84,402.08 
			172.288,402.512 175.168,403.304 180.424,395.096 177.616,393.872 173.944,393.08 170.704,392.648 167.032,392.648 
			163.792,393.512 160.48,394.304 157.24,395.96 154.432,397.544 151.552,399.632 149.536,402.512 147.52,405.392 145.864,408.272 
			144.64,411.512 143.848,414.824 143.416,418.496 143.848,421.736 144.208,424.976 145.432,428.288 146.656,431.528 
			148.744,434.408 150.76,437.288 153.568,439.736 156.448,441.392 159.256,443.048 162.568,444.272 165.808,445.064 
			169.48,445.496 172.72,445.064 176.392,444.704 179.632,443.48 185.32,440.168 188.128,437.72 190.216,435.272 192.232,432.392 
			193.816,429.08 195.04,425.84 195.904,422.528 195.904,419.288 195.904,415.616 195.04,412.376 193.816,409.064 		"/>
		<polygon fill-rule="evenodd" clip-rule="evenodd" points="247.528,320.432 255.664,311.432 260.92,305.672 266.608,300.776 
			266.608,293 259.696,293 258.112,292.568 256.456,291.776 255.232,290.552 254.44,288.896 253.648,284.36 252.784,273.272 
			249.976,273.272 250.768,270.032 251.56,266.288 253.216,263.048 254.872,260.6 256.888,257.72 258.472,256.496 260.56,255.272 
			262.576,254.408 266.248,253.616 269.848,253.616 273.952,254.048 275.968,254.84 278.416,255.632 280.432,256.496 
			282.52,258.512 284.536,260.6 285.76,263.048 286.984,265.496 287.776,268.376 288.208,271.256 288.568,274.136 288.568,277.016 
			288.568,282.704 288.208,288.464 291.016,290.552 296.344,295.016 301.096,299.552 305.992,304.448 310.456,309.416 
			314.56,315.104 318.16,320.864 321.472,326.624 324.712,332.744 327.16,338.504 329.176,344.696 330.832,349.592 331.624,354.92 
			331.984,360.248 331.192,363.92 341.344,359.456 344.224,360.68 349.12,361.904 353.944,362.696 358.84,363.128 366.184,363.128 
			373.888,362.336 381.592,361.472 388.936,359.816 396.28,358.232 399.088,362.696 400.312,365.576 401.176,368.888 
			401.176,371.768 401.176,375.008 400.744,378.32 403.552,380.768 407.224,384.008 410.464,387.32 413.344,391.424 
			415.792,395.528 417.808,400.064 419.464,404.528 420.688,409.064 421.48,413.96 421.48,418.928 421.48,423.752 421.048,428.288 
			419.824,433.184 415,433.184 414.136,436.064 412.12,440.168 409.672,444.272 406.864,447.944 403.552,451.256 399.952,454.496 
			396.28,457.376 392.176,459.824 387.712,461.48 371.872,445.496 374.32,445.496 377.992,445.064 381.232,443.84 384.472,442.616 
			387.352,440.6 389.728,438.512 392.176,436.064 394.264,433.184 395.848,430.304 397.072,427.064 397.864,423.752 
			398.296,420.152 398.296,416.84 397.864,413.6 396.64,409.856 395.416,406.976 393.832,403.736 385.696,408.632 387.352,411.512 
			388.936,414.824 389.368,418.928 388.936,421.736 387.352,426.632 386.128,429.08 382.024,432.752 377.56,434.84 374.68,435.632 
			372.304,435.632 369.424,435.632 366.976,434.84 364.528,433.616 362.512,432.392 360.496,430.736 358.84,428.648 357.256,426.2 
			354.376,427.856 277.984,351.248 283.312,347.504 269.056,328.64 260.92,333.968 		"/>
	</g>
</g>
</svg>
